X: 4
T: Au clair de la lune
M: 4/4
K: C
L: 1/4
Q: 1/4=120
| !mf!vg ug (g a) | (ub2 a2) | (g b) a a | ug4 | !mp!g g (g a) |
(b2 a2) | (g b) a a | g4 | !f!a a a a | e2 e2 | (a g ^f e) |
!>(!d4 | !>)!!p!g g (g a) | (b2 a2) | (g b) (!tenuto!ua !tenuto!a) | g4 |

